images/Logo.svg

<svg width="70" height="33" viewBox="0 0 70 33" fill="none" xmlns="http://www.w3.org/2000/svg">
<path d="M2.64358 0H0V19.0926H2.64358V12.0094C2.64358 10.8111 2.94163 9.86583 3.53774 9.20012C4.13384 8.53441 4.95024 8.18824 5.96102 8.18824C6.82926 8.18824 7.55495 8.50778 8.13809 9.12024C8.72123 9.74601 9.01929 10.5315 9.01929 11.4769V19.1059H11.6758V11.4769C11.6758 9.71938 11.1964 8.3347 10.2374 7.29619C9.27846 6.25768 8.02146 5.73843 6.49233 5.73843C6.05173 5.73843 5.61114 5.79168 5.1835 5.91151C4.7429 6.03134 4.39301 6.16448 4.10792 6.31094C3.82283 6.45739 3.5507 6.61717 3.30448 6.80356C3.05826 6.98996 2.8898 7.12311 2.81205 7.20299C2.73429 7.28288 2.6695 7.33613 2.64358 7.37608V0Z" fill="#F0145A"/>
<path d="M17.5854 0H14.8601V19.0767H17.5854V0Z" fill="#323264"/>
<path d="M33.6593 13.4896L33.7955 12.127C33.7955 10.3011 33.196 8.77493 31.9696 7.54857C30.7433 6.32221 29.2171 5.72266 27.3912 5.72266C25.5653 5.72266 23.9847 6.37672 22.6765 7.68483C21.3684 8.99295 20.7144 10.5463 20.7144 12.3995C20.7144 14.3072 21.3957 15.9423 22.731 17.305C24.0664 18.6676 25.6743 19.3489 27.5275 19.3489C28.236 19.3489 28.8901 19.2399 29.5442 19.0491C30.1982 18.8311 30.7433 18.6131 31.1248 18.3951C31.5336 18.1498 31.9424 17.8773 32.2967 17.5775C32.6509 17.2777 32.8962 17.0597 33.0052 16.9234C33.1142 16.7872 33.196 16.7054 33.2505 16.6236L31.4791 14.8522L31.0703 15.37C30.7978 15.6971 30.3345 16.0241 29.6804 16.3784C28.9991 16.7327 28.2905 16.8962 27.5275 16.8962C26.4646 16.8962 25.5653 16.5691 24.8022 15.8878C24.0392 15.2065 23.5759 14.4162 23.4396 13.4896H33.6593ZM27.3912 8.03912C28.3996 8.03912 29.2171 8.33889 29.8984 8.9112C30.5525 9.51075 30.9613 10.2466 31.1248 11.1732H23.5486C23.7939 10.2466 24.2299 9.51075 24.9112 8.9112C25.5653 8.33889 26.4101 8.03912 27.3912 8.03912Z" fill="#323264"/>
<path d="M46.3695 18.286C46.3695 19.4852 46.0153 20.4662 45.2794 21.2293C44.5709 21.9651 43.6715 22.3467 42.5542 22.3467C42.0637 22.3467 41.5731 22.2649 41.1098 22.1286C40.6465 21.9924 40.2922 21.8289 39.9925 21.6381C39.6927 21.4473 39.4202 21.2566 39.1476 21.0113C38.9024 20.766 38.7389 20.6025 38.6571 20.5207C38.5753 20.439 38.5208 20.3572 38.4663 20.3027L36.6949 22.0741L36.9129 22.3467C37.0492 22.5374 37.2945 22.7827 37.6215 23.0552C37.9485 23.3005 38.3301 23.573 38.7661 23.8455C39.2021 24.0908 39.7472 24.3088 40.4285 24.4996C41.1098 24.6904 41.8184 24.7994 42.5542 24.7994C44.4074 24.7994 45.9335 24.1726 47.2144 22.919C48.468 21.6381 49.0948 20.112 49.0948 18.2588V5.99518H46.3695V7.3578L45.9062 6.94902C45.6065 6.67649 45.1432 6.40397 44.4891 6.13144C43.8351 5.85892 43.1265 5.72266 42.4179 5.72266C40.7555 5.72266 39.3384 6.34946 38.112 7.63033C36.8857 8.9112 36.2861 10.4373 36.2861 12.2632C36.2861 14.0892 36.8857 15.6153 38.112 16.8962C39.3384 18.177 40.7555 18.8038 42.4179 18.8038C42.8812 18.8038 43.3173 18.7493 43.7806 18.6403C44.2166 18.5041 44.5709 18.3678 44.8707 18.2315C45.1704 18.0953 45.443 17.9318 45.6882 17.741C45.9335 17.5502 46.1243 17.414 46.1788 17.3595L46.3695 17.1687V18.286ZM39.0114 12.2632C39.0114 11.1186 39.3657 10.1648 40.1015 9.37449C40.8373 8.58417 41.7094 8.17538 42.6905 8.17538C43.6715 8.17538 44.5436 8.58417 45.2794 9.37449C45.988 10.1648 46.3695 11.1186 46.3695 12.2632C46.3695 13.4079 45.988 14.3617 45.2794 15.152C44.5436 15.9423 43.6715 16.3511 42.6905 16.3511C41.7094 16.3511 40.8373 15.9423 40.1015 15.152C39.3657 14.3617 39.0114 13.4079 39.0114 12.2632Z" fill="#323264"/>
<path d="M63.3195 19.0764V10.6281C63.3195 9.23823 62.8017 8.06637 61.7934 7.13979C60.7851 6.18595 59.4769 5.72266 57.869 5.72266C57.2422 5.72266 56.6154 5.80441 56.0159 5.96793C55.4163 6.1587 54.9258 6.34946 54.5715 6.56748C54.2172 6.7855 53.8629 7.03078 53.5359 7.33055C53.2089 7.60308 53.0181 7.79384 52.9091 7.90285C52.8273 8.01186 52.7456 8.09362 52.6911 8.17538L54.4625 9.94679L54.8168 9.4835C55.0348 9.18372 55.4163 8.9112 55.9886 8.61142C56.5609 8.31164 57.1877 8.17538 57.869 8.17538C58.6594 8.17538 59.3134 8.42065 59.8312 8.88394C60.349 9.34724 60.5943 9.94679 60.5943 10.6281L55.8251 11.4457C54.6533 11.6364 53.6994 12.0997 53.0454 12.8356C52.364 13.5714 52.0098 14.4707 52.0098 15.5335C52.0098 16.5419 52.4458 17.414 53.3179 18.177C54.2172 18.9674 55.3073 19.3489 56.6427 19.3489C57.106 19.3489 57.542 19.2944 57.9781 19.1581C58.4413 19.0491 58.7956 18.9129 59.0954 18.7766C59.3952 18.6403 59.6677 18.4768 59.913 18.286C60.1582 18.0953 60.3218 17.959 60.4308 17.9045C60.5125 17.8228 60.567 17.741 60.5943 17.7137V19.0764H63.3195ZM57.0515 16.8962C56.3429 16.8962 55.7706 16.7327 55.3618 16.4056C54.9258 16.0786 54.735 15.6971 54.735 15.261C54.735 14.7977 54.8713 14.3889 55.1711 14.0892C55.4708 13.7894 55.8796 13.5714 56.3702 13.4896L60.5943 12.8083V13.0808C60.5943 14.3072 60.2945 15.2338 59.6677 15.9151C59.0409 16.5691 58.1688 16.8962 57.0515 16.8962Z" fill="#323264"/>
<path d="M69.3332 0H66.6079V19.0767H69.3332V0Z" fill="#323264"/>
<path d="M0 28.3298H0.852878V31.3201H2.70078V32.0151H0V28.3298Z" fill="#323264"/>
<path d="M8.26752 31.2254H6.5565L6.23009 32.0151H5.35615L6.99873 28.3298H7.84108L9.48893 32.0151H8.59393L8.26752 31.2254ZM7.99902 30.5778L7.41464 29.1669L6.83026 30.5778H7.99902Z" fill="#323264"/>
<path d="M17.8731 28.3298L16.6675 32.0151H15.7515L14.9407 29.5196L14.1036 32.0151H13.1928L11.982 28.3298H12.8664L13.6982 30.92L14.5669 28.3298H15.3566L16.199 30.9411L17.0571 28.3298H17.8731Z" fill="#323264"/>
<path d="M26.9457 32.0782C26.5702 32.0782 26.2297 31.9975 25.9244 31.8361C25.6225 31.6711 25.3838 31.4447 25.2084 31.1569C25.0364 30.8656 24.9504 30.5374 24.9504 30.1724C24.9504 29.8074 25.0364 29.481 25.2084 29.1932C25.3838 28.9019 25.6225 28.6755 25.9244 28.514C26.2297 28.3491 26.5719 28.2666 26.951 28.2666C27.2704 28.2666 27.5582 28.3228 27.8144 28.4351C28.0741 28.5474 28.2917 28.7088 28.4672 28.9194L27.9197 29.4248C27.6705 29.137 27.3616 28.9931 26.9931 28.9931C26.7649 28.9931 26.5614 29.044 26.3824 29.1458C26.2034 29.2441 26.063 29.3827 25.9612 29.5617C25.8629 29.7407 25.8138 29.9443 25.8138 30.1724C25.8138 30.4006 25.8629 30.6041 25.9612 30.7831C26.063 30.9621 26.2034 31.1025 26.3824 31.2043C26.5614 31.3026 26.7649 31.3517 26.9931 31.3517C27.3616 31.3517 27.6705 31.206 27.9197 30.9147L28.4672 31.4201C28.2917 31.6342 28.0741 31.7974 27.8144 31.9098C27.5547 32.0221 27.2651 32.0782 26.9457 32.0782Z" fill="#323264"/>
<path d="M33.3831 32.0782C33.0005 32.0782 32.6548 31.9958 32.3459 31.8308C32.0406 31.6658 31.8002 31.4395 31.6247 31.1516C31.4527 30.8603 31.3667 30.5339 31.3667 30.1724C31.3667 29.8109 31.4527 29.4863 31.6247 29.1985C31.8002 28.9071 32.0406 28.679 32.3459 28.514C32.6548 28.3491 33.0005 28.2666 33.3831 28.2666C33.7657 28.2666 34.1096 28.3491 34.415 28.514C34.7203 28.679 34.9607 28.9071 35.1362 29.1985C35.3117 29.4863 35.3995 29.8109 35.3995 30.1724C35.3995 30.5339 35.3117 30.8603 35.1362 31.1516C34.9607 31.4395 34.7203 31.6658 34.415 31.8308C34.1096 31.9958 33.7657 32.0782 33.3831 32.0782ZM33.3831 31.3517C33.6007 31.3517 33.7972 31.3026 33.9727 31.2043C34.1482 31.1025 34.2851 30.9621 34.3834 30.7831C34.4852 30.6041 34.5361 30.4006 34.5361 30.1724C34.5361 29.9443 34.4852 29.7407 34.3834 29.5617C34.2851 29.3827 34.1482 29.2441 33.9727 29.1458C33.7972 29.044 33.6007 28.9931 33.3831 28.9931C33.1655 28.9931 32.9689 29.044 32.7934 29.1458C32.618 29.2441 32.4793 29.3827 32.3775 29.5617C32.2793 29.7407 32.2301 29.9443 32.2301 30.1724C32.2301 30.4006 32.2793 30.6041 32.3775 30.7831C32.4793 30.9621 32.618 31.1025 32.7934 31.2043C32.9689 31.3026 33.1655 31.3517 33.3831 31.3517Z" fill="#323264"/>
<path d="M42.0264 32.0151L42.0211 29.8039L40.9366 31.6255H40.5523L39.473 29.8513V32.0151H38.6728V28.3298H39.3782L40.7576 30.6199L42.1159 28.3298H42.8161L42.8266 32.0151H42.0264Z" fill="#323264"/>
<path d="M47.9285 28.3298C48.2549 28.3298 48.5374 28.3842 48.7761 28.493C49.0183 28.6018 49.2043 28.7562 49.3342 28.9563C49.464 29.1563 49.529 29.3932 49.529 29.667C49.529 29.9373 49.464 30.1742 49.3342 30.3777C49.2043 30.5778 49.0183 30.7322 48.7761 30.841C48.5374 30.9463 48.2549 30.999 47.9285 30.999H47.1862V32.0151H46.3333V28.3298H47.9285ZM47.8811 30.304C48.1373 30.304 48.3321 30.2496 48.4655 30.1408C48.5989 30.0285 48.6656 29.8706 48.6656 29.667C48.6656 29.4599 48.5989 29.302 48.4655 29.1932C48.3321 29.0809 48.1373 29.0247 47.8811 29.0247H47.1862V30.304H47.8811Z" fill="#323264"/>
<path d="M55.0121 31.2254H53.3011L52.9747 32.0151H52.1008L53.7433 28.3298H54.5857L56.2335 32.0151H55.3385L55.0121 31.2254ZM54.7436 30.5778L54.1592 29.1669L53.5749 30.5778H54.7436Z" fill="#323264"/>
<path d="M62.6281 28.3298V32.0151H61.9279L60.0906 29.7776V32.0151H59.2482V28.3298H59.9537L61.7858 30.5673V28.3298H62.6281Z" fill="#323264"/>
<path d="M67.9013 30.7094V32.0151H67.0485V30.6989L65.6217 28.3298H66.5273L67.5117 29.9671L68.4963 28.3298H69.3333L67.9013 30.7094Z" fill="#323264"/>
</svg>

<svg width="70" height="33" fill="none" xmlns="http://www.w3.org/2000/svg"><path d="M2.644 0H0v19.093h2.644v-7.084c0-1.198.298-2.143.894-2.809.596-.666 1.412-1.012 2.423-1.012.868 0 1.594.32 2.177.932.583.626.881 1.412.881 2.357v7.629h2.657v-7.63c0-1.757-.48-3.141-1.439-4.18-.959-1.038-2.216-1.558-3.745-1.558-.44 0-.88.054-1.308.174a5.49 5.49 0 0 0-1.076.399 5.455 5.455 0 0 0-.804.493 5.57 5.57 0 0 0-.492.399c-.078.08-.142.133-.168.173V0Z" fill="#F0145A"/><path d="M17.585 0H14.86v19.077h2.725V0ZM33.66 13.49l.136-1.363c0-1.826-.6-3.352-1.826-4.578-1.227-1.227-2.753-1.826-4.579-1.826-1.826 0-3.406.654-4.714 1.962-1.309 1.308-1.963 2.861-1.963 4.715 0 1.907.682 3.542 2.017 4.905 1.335 1.363 2.943 2.044 4.796 2.044a7.08 7.08 0 0 0 2.017-.3c.654-.218 1.2-.436 1.58-.654a8.983 8.983 0 0 0 1.173-.817c.354-.3.6-.518.708-.655.11-.136.191-.218.245-.3l-1.77-1.77-.41.517c-.272.327-.736.654-1.39 1.008a4.563 4.563 0 0 1-2.152.518c-1.063 0-1.963-.327-2.726-1.008-.763-.681-1.226-1.472-1.362-2.398h10.22Zm-6.27-5.45c1.009 0 1.826.299 2.507.871.654.6 1.063 1.336 1.227 2.262h-7.576c.245-.926.68-1.662 1.362-2.262.654-.572 1.5-.872 2.48-.872Zm18.98 10.246c0 1.2-.355 2.18-1.09 2.943-.71.736-1.608 1.118-2.726 1.118a5.15 5.15 0 0 1-1.444-.218 4.283 4.283 0 0 1-1.117-.49 6.164 6.164 0 0 1-.845-.628l-.49-.49c-.083-.082-.137-.164-.192-.218l-1.771 1.771.218.273c.136.19.382.436.709.708.327.245.708.518 1.144.79.436.246.981.464 1.663.655.68.19 1.39.3 2.125.3 1.853 0 3.38-.627 4.66-1.881 1.254-1.28 1.88-2.807 1.88-4.66V5.995H46.37v1.363l-.464-.409c-.3-.273-.763-.545-1.417-.818a5.397 5.397 0 0 0-2.071-.408c-1.663 0-3.08.626-4.306 1.907-1.226 1.281-1.826 2.807-1.826 4.633s.6 3.352 1.826 4.633c1.226 1.281 2.643 1.908 4.306 1.908.463 0 .9-.055 1.363-.164.436-.136.79-.272 1.09-.409.3-.136.572-.3.817-.49s.436-.327.49-.381l.192-.191v1.117Zm-7.359-6.023c0-1.144.355-2.098 1.09-2.889.736-.79 1.608-1.199 2.59-1.199.98 0 1.853.41 2.588 1.2.709.79 1.09 1.744 1.09 2.888 0 1.145-.381 2.099-1.09 2.889-.735.79-1.608 1.2-2.589 1.2-.98 0-1.853-.41-2.588-1.2-.736-.79-1.09-1.744-1.09-2.889Zm24.309 6.813v-8.448c0-1.39-.518-2.562-1.527-3.488-1.008-.954-2.316-1.417-3.924-1.417a7.06 7.06 0 0 0-1.853.245c-.6.19-1.09.381-1.444.6a6.74 6.74 0 0 0-1.036.763 8.633 8.633 0 0 0-.627.572c-.082.109-.163.19-.218.272l1.771 1.772.355-.463c.218-.3.6-.573 1.172-.873.572-.3 1.199-.436 1.88-.436.79 0 1.444.246 1.962.709.518.463.763 1.063.763 1.744l-4.769.818c-1.172.19-2.126.654-2.78 1.39-.681.735-1.035 1.635-1.035 2.697 0 1.009.436 1.881 1.308 2.644.9.79 1.99 1.172 3.325 1.172.463 0 .899-.055 1.335-.19a5.873 5.873 0 0 0 1.117-.382c.3-.137.573-.3.818-.491.245-.19.409-.327.518-.382.082-.081.136-.163.163-.19v1.362h2.725Zm-6.269-2.18c-.708 0-1.28-.163-1.69-.49-.435-.327-.626-.709-.626-1.145 0-.463.136-.872.436-1.172.3-.3.709-.518 1.2-.6l4.223-.68v.272c0 1.226-.3 2.153-.926 2.834-.627.654-1.5.981-2.617.981ZM69.333 0h-2.725v19.077h2.725V0ZM0 28.33h.853v2.99H2.7v.695H0V28.33Zm8.268 2.895H6.556l-.326.79h-.874L7 28.33h.842l1.648 3.685h-.895l-.326-.79Zm-.269-.647-.584-1.411-.585 1.41H8Zm9.874-2.248-1.206 3.685h-.916l-.81-2.495-.837 2.495h-.911l-1.211-3.685h.884l.832 2.59.869-2.59h.79l.842 2.611.858-2.611h.816Zm9.073 3.748c-.376 0-.716-.08-1.022-.242a1.876 1.876 0 0 1-.716-.68 1.9 1.9 0 0 1-.258-.984 1.825 1.825 0 0 1 .974-1.658 2.125 2.125 0 0 1 1.027-.247c.32 0 .607.056.863.168.26.112.478.274.653.484l-.547.506a1.177 1.177 0 0 0-.927-.432c-.228 0-.432.051-.61.153-.18.098-.32.237-.422.416a1.248 1.248 0 0 0-.147.61c0 .229.049.432.147.611.102.18.242.32.421.421.18.099.383.148.611.148.369 0 .678-.146.927-.437l.547.505a1.708 1.708 0 0 1-.653.49c-.26.112-.549.168-.868.168Zm6.437 0c-.383 0-.728-.082-1.037-.247a1.867 1.867 0 0 1-.721-.68 1.89 1.89 0 0 1-.258-.979c0-.361.086-.686.258-.974.175-.29.416-.519.72-.684a2.167 2.167 0 0 1 1.038-.247c.383 0 .727.082 1.032.247a1.854 1.854 0 0 1 .985 1.658c0 .362-.088.688-.264.98a1.867 1.867 0 0 1-.721.679c-.305.165-.65.247-1.032.247Zm0-.726c.218 0 .414-.05.59-.148.175-.102.312-.242.41-.42.102-.18.153-.383.153-.612a1.2 1.2 0 0 0-.153-.61 1.041 1.041 0 0 0-.41-.416 1.153 1.153 0 0 0-.59-.153c-.218 0-.414.051-.59.153a1.077 1.077 0 0 0-.416.416 1.249 1.249 0 0 0-.147.61c0 .229.05.432.148.611.101.18.24.32.415.421.176.099.373.148.59.148Zm8.643.663-.005-2.211-1.084 1.822h-.385l-1.079-1.775v2.164h-.8V28.33h.705l1.38 2.29 1.358-2.29h.7l.01 3.685h-.8Zm5.902-3.685c.327 0 .61.054.848.163.242.109.428.263.558.463.13.2.195.437.195.711 0 .27-.065.507-.195.71-.13.2-.316.355-.558.464a2.088 2.088 0 0 1-.848.158h-.742v1.016h-.853V28.33h1.596Zm-.047 1.974c.256 0 .451-.054.584-.163.134-.112.2-.27.2-.474 0-.207-.066-.365-.2-.474-.133-.112-.328-.168-.584-.168h-.695v1.279h.695Zm7.131.921h-1.71l-.327.79H52.1l1.642-3.685h.843l1.648 3.685h-.895l-.327-.79Zm-.268-.647-.585-1.411-.584 1.41h1.169Zm7.884-2.248v3.685h-.7l-1.837-2.237v2.237h-.843V28.33h.706l1.832 2.237V28.33h.842Zm5.273 2.38v1.305h-.852V30.7l-1.427-2.37h.905l.985 1.638.984-1.637h.837l-1.432 2.38Z" fill="#323264"/></svg>
